assets/icon.svg

<?xml version="1.0" encoding="UTF-8" standalone="no"?>
<svg
   viewBox="0 0 64 64"
   version="1.1"
   id="svg13"
   sodipodi:docname="6843068_business_launch_launching_rocket_spaceship_icon.svg"
   inkscape:version="1.2.1 (9c6d41e, 2022-07-14)"
   xmlns:inkscape="http://www.inkscape.org/namespaces/inkscape"
   xmlns:sodipodi="http://sodipodi.sourceforge.net/DTD/sodipodi-0.dtd"
   xmlns="http://www.w3.org/2000/svg"
   xmlns:svg="http://www.w3.org/2000/svg">
  <defs
     id="defs17" />
  <sodipodi:namedview
     id="namedview15"
     pagecolor="#ffffff"
     bordercolor="#000000"
     borderopacity="0.25"
     inkscape:showpageshadow="2"
     inkscape:pageopacity="0.0"
     inkscape:pagecheckerboard="0"
     inkscape:deskcolor="#d1d1d1"
     showgrid="false"
     inkscape:zoom="3.6875"
     inkscape:cx="22.101695"
     inkscape:cy="32.135593"
     inkscape:window-width="1440"
     inkscape:window-height="847"
     inkscape:window-x="0"
     inkscape:window-y="25"
     inkscape:window-maximized="1"
     inkscape:current-layer="svg13" />
  <g
     id="Launching"
     style="fill:#333333">
    <path
       d="M12.3638,41.0681S8.0312,44.5,7.7561,53.93A1.9032,1.9032,0,0,0,9.68,55.8808c9.1235-.17,12.8618-4.6343,12.8618-4.6343a7.3926,7.3926,0,0,0,0-10.1784C19.7314,38.2574,15.5652,38.394,12.3638,41.0681Z"
       id="path2"
       style="fill:#333333" />
    <path
       d="M32.5049,44.4262a11.424,11.424,0,0,1,2.2751,5.85,34.1291,34.1291,0,0,1-.8711,9.8921,1.4354,1.4354,0,0,0,2.0733,1.5869c7.6938-4.0539,14.0468-11.8882,9.9934-22.1077A32.1494,32.1494,0,0,1,32.5049,44.4262Z"
       id="path4"
       style="fill:#333333" />
    <path
       d="M13.33,28.8247a11.4207,11.4207,0,0,1,5.8552,2.2807A31.9474,31.9474,0,0,1,23.9631,17.63C13.741,13.5725,5.9065,19.9291,1.8484,27.6235a1.42,1.42,0,0,0,.1279,1.5332,1.4348,1.4348,0,0,0,1.46.539A34.1864,34.1864,0,0,1,13.33,28.8247Z"
       id="path6"
       style="fill:#333333" />
    <path
       d="M60.4182,5.3488a2.5779,2.5779,0,0,0-2.1538-2.1535,32.8033,32.8033,0,0,0-9.4988-.0391A13.47,13.47,0,0,0,60.4582,14.841,32.8093,32.8093,0,0,0,60.4182,5.3488Z"
       id="path8"
       style="fill:#333333" />
    <path
       d="M46.1135,3.6481a27.7164,27.7164,0,0,0-12.65,6.7024C21.789,21.16,21.831,32.1193,21.831,32.1193l9.6629,9.6629s10.96.0421,21.7688-11.6319a27.7158,27.7158,0,0,0,6.7036-12.6561A16.1679,16.1679,0,0,1,46.1135,3.6481ZM41.6621,27.583a5.64,5.64,0,1,1,5.64-5.64A5.64,5.64,0,0,1,41.6621,27.583Z"
       id="path10"
       style="fill:#333333" />
  </g>
</svg>

<?xml version="1.0" encoding="UTF-8" standalone="no"?>
<svg
   viewBox="0 0 64 64"
   version="1.1"
   id="svg13"
   sodipodi:docname="icon.svg"
   inkscape:version="1.2.1 (9c6d41e, 2022-07-14)"
   xmlns:inkscape="http://www.inkscape.org/namespaces/inkscape"
   xmlns:sodipodi="http://sodipodi.sourceforge.net/DTD/sodipodi-0.dtd"
   xmlns="http://www.w3.org/2000/svg"
   xmlns:svg="http://www.w3.org/2000/svg">
  <defs
     id="defs17" />
  <sodipodi:namedview
     id="namedview15"
     pagecolor="#ffffff"
     bordercolor="#000000"
     borderopacity="0.25"
     inkscape:showpageshadow="2"
     inkscape:pageopacity="0.0"
     inkscape:pagecheckerboard="0"
     inkscape:deskcolor="#d1d1d1"
     showgrid="true"
     inkscape:zoom="5.2149125"
     inkscape:cx="24.640874"
     inkscape:cy="24.832631"
     inkscape:window-width="1440"
     inkscape:window-height="847"
     inkscape:window-x="0"
     inkscape:window-y="25"
     inkscape:window-maximized="1"
     inkscape:current-layer="svg13">
    <inkscape:grid
       type="xygrid"
       id="grid2661" />
  </sodipodi:namedview>
  <g
     id="g3600">
    <path
       d="m 12.3638,41.0681 c 0,0 -4.3326,3.4319 -4.6077,12.8619 A 1.9032,1.9032 0 0 0 9.68,55.8808 c 9.1235,-0.17 12.8618,-4.6343 12.8618,-4.6343 a 7.3926,7.3926 0 0 0 0,-10.1784 c -2.8104,-2.8107 -6.9766,-2.6741 -10.178,0 z"
       id="path2"
       style="fill:#287dda;fill-opacity:1;stroke:#e5e5e5;stroke-width:1.5;stroke-dasharray:none;stroke-opacity:1" />
    <path
       d="m 32.5049,44.4262 a 11.424,11.424 0 0 1 2.2751,5.85 34.1291,34.1291 0 0 1 -0.8711,9.8921 1.4354,1.4354 0 0 0 2.0733,1.5869 C 43.676,57.7013 50.029,49.867 45.9756,39.6475 a 32.1494,32.1494 0 0 1 -13.4707,4.7787 z"
       id="path4"
       style="fill:#287dda;fill-opacity:1;stroke:#e5e5e5;stroke-width:1.5;stroke-dasharray:none;stroke-opacity:1" />
    <path
       d="M 13.33,28.8247 A 11.4207,11.4207 0 0 1 19.1852,31.1054 31.9474,31.9474 0 0 1 23.9631,17.63 C 13.741,13.5725 5.9065,19.9291 1.8484,27.6235 a 1.42,1.42 0 0 0 0.1279,1.5332 1.4348,1.4348 0 0 0 1.46,0.539 34.1864,34.1864 0 0 1 9.8937,-0.871 z"
       id="path6"
       style="fill:#287dda;fill-opacity:1;stroke:#e5e5e5;stroke-width:1.5;stroke-dasharray:none;stroke-opacity:1" />
    <path
       d="M 60.4182,5.3488 A 2.5779,2.5779 0 0 0 58.2644,3.1953 32.8033,32.8033 0 0 0 48.7656,3.1562 13.47,13.47 0 0 0 60.4582,14.841 32.8093,32.8093 0 0 0 60.4182,5.3488 Z"
       id="path8"
       style="fill:#287dda;fill-opacity:1;stroke:#e5e5e5;stroke-width:1.5;stroke-dasharray:none;stroke-opacity:1" />
    <path
       d="m 46.1135,3.6481 a 27.7164,27.7164 0 0 0 -12.65,6.7024 C 21.789,21.16 21.831,32.1193 21.831,32.1193 l 9.6629,9.6629 c 0,0 10.96,0.0421 21.7688,-11.6319 A 27.7158,27.7158 0 0 0 59.9663,17.4942 16.1679,16.1679 0 0 1 46.1135,3.6481 Z M 41.6621,27.583 a 5.64,5.64 0 1 1 5.64,-5.64 5.64,5.64 0 0 1 -5.64,5.64 z"
       id="path10"
       style="fill:#287dda;fill-opacity:1;stroke:#e5e5e5;stroke-width:1.5;stroke-dasharray:none;stroke-opacity:1" />
    <circle
       style="fill:#ffffff;fill-opacity:0.99574471;stroke:none;stroke-width:1.5;stroke-dasharray:none;stroke-opacity:1;paint-order:stroke fill markers"
       id="path3540"
       cx="41.707314"
       cy="21.956264"
       r="6.4238853" />
  </g>
</svg>
